X:110
T:Jenny Picking Cockles (flute)
M:2/2
L:1/8
R:Flute
K:D mix
(3AcA) ec AGEF|GEcE dEcE|(3AcA) ec AGEF|GEcE EDFG|
(3AcA) ec AGEF|GE ~E c2 cd|edcA AGEF|GEcE ED D2:|
f2 fd e2 ed|^cAAB ^cdeg|f2 fd e2 ed|eaag edde|
f2 fd e2 ed|=cAAB =c3 d|edcA AGEF|GEcE ED D2:|
